dist/svg/static/documents-small.svg

<svg xmlns="http://www.w3.org/2000/svg" width="24" height="24" viewBox="0 0 24 24"><g fill="none" stroke="currentColor" stroke-miterlimit="10"><path d="M7 18.5h10m-10-3h10m-10-3h10m-2.5-10v5h5"/><path d="M19.5 7.5v14h-15v-19h10l5 5z"/></g></svg>

<?xml version="1.0" encoding="UTF-8" standalone="no"?>
<svg width="24px" height="24px" viewBox="0 0 24 24" version="1.1" xmlns="http://www.w3.org/2000/svg" xmlns:xlink="http://www.w3.org/1999/xlink">
    <!-- Generator: sketchtool 46.2 (44496) - http://www.bohemiancoding.com/sketch -->
    <title>documents-small</title>
    <desc>Created with sketchtool.</desc>
    <defs></defs>
    <g id="icons-published" stroke="none" stroke-width="1" fill="none" fill-rule="evenodd">
        <g id="briefing" transform="translate(-3524.000000, -410.000000)"></g>
        <g id="documents-small" stroke="#000000">
            <path d="M7,18.5 L17,18.5 M7,15.5 L17,15.5 M7,12.5 L17,12.5 M14.5,2.5 L14.5,7.5 L19.5,7.5" id="Shape"></path>
            <polygon id="Shape" points="19.5 7.5 19.5 21.5 4.5 21.5 4.5 2.5 14.5 2.5"></polygon>
        </g>
    </g>
</svg>
